build/img/svg/leaf.svg

<svg width="30" height="30" viewBox="0 0 30 30" fill="none" xmlns="http://www.w3.org/2000/svg">
<path d="M29.8661 8.00895C29.7766 7.36171 29.643 6.66938 29.4643 5.93271C29.2857 5.19628 29.0209 4.5712 28.6693 4.05765C28.3177 3.54434 27.924 3.2875 27.4889 3.2875C27.4388 3.06984 27.1959 3.09494 26.7605 3.36291C26.3252 3.63083 26.1214 3.72025 26.1497 3.63083C26.1774 3.54146 26.0264 3.65299 25.6973 3.96553C25.3681 4.27807 25.2037 4.43428 25.2037 4.43428L24.7097 4.92801C24.2746 5.34106 23.6413 5.65623 22.8097 5.87384C21.9782 6.09185 21.066 6.22543 20.0726 6.27574C19.0793 6.32611 18.0832 6.35965 17.0843 6.37625C16.0854 6.39284 15.0836 6.44321 14.0792 6.52683C13.0747 6.61062 12.2655 6.75288 11.6518 6.95377C10.4351 7.3555 9.29676 7.88857 8.23647 8.5527C7.17613 9.21677 6.22479 9.99249 5.38211 10.8799C4.53949 11.7671 3.8753 12.7967 3.38996 13.9687C2.90467 15.1402 2.66174 16.3682 2.66174 17.6516C2.66174 18.2432 2.71187 18.8235 2.81232 19.3928C2.83466 19.5044 2.92385 19.75 3.08029 20.1294C3.23662 20.5091 3.31467 20.721 3.31467 20.7659C3.31467 20.9776 3.14169 21.246 2.79561 21.5692C2.44959 21.8929 2.07026 22.2055 1.65722 22.5067C1.24429 22.8079 0.864905 23.1735 0.518826 23.6031C0.173098 24.0331 0 24.4433 0 24.8338C0 24.9121 0.00820927 24.9871 0.0250969 25.0599C0.0419845 25.1326 0.0588135 25.1854 0.0754666 25.2187C0.0921197 25.2524 0.122963 25.308 0.167469 25.3858C0.212327 25.4639 0.245516 25.5257 0.267974 25.5701C0.457784 25.8936 0.608424 26.1282 0.719953 26.2732C0.831481 26.4182 1.0044 26.552 1.2389 26.675C1.47309 26.7976 1.75796 26.859 2.09266 26.859C2.41651 26.859 2.75122 26.6804 3.0973 26.3236C3.44302 25.9666 3.73615 25.5755 3.9761 25.1518C4.21593 24.7277 4.46725 24.337 4.72942 23.9799C4.99158 23.6229 5.21212 23.4443 5.39061 23.4443C5.64727 23.4443 6.18293 23.6509 6.99775 24.0639C7.81246 24.4771 8.30361 24.7113 8.47102 24.7673C10.0111 25.2918 11.607 25.5541 13.259 25.5541C15.7592 25.5541 18.203 24.9509 20.5917 23.7456C23.0361 22.5292 25.0308 21.0338 26.5767 19.2591C28.1227 17.4842 29.1521 15.3473 29.6656 12.8469C29.8884 11.7531 29.9999 10.6762 29.9999 9.6158C30 9.19168 29.9554 8.65596 29.8661 8.00895ZM21.1102 13.6839C20.8981 13.896 20.6467 14.0021 20.3565 14.0021C18.3253 14.0021 16.576 14.2923 15.1083 14.8725C13.6409 15.4528 12.1425 16.435 10.6134 17.8189C10.3905 18.031 10.0165 18.3991 9.4919 18.9238C8.96739 19.4485 8.55429 19.8446 8.25313 20.1124C8.01863 20.3245 7.76761 20.4306 7.49963 20.4306C7.20926 20.4306 6.95823 20.3245 6.74608 20.1124C6.53399 19.9009 6.42803 19.6492 6.42803 19.359C6.42803 19.0911 6.53399 18.8405 6.74608 18.6057C8.10765 17.0989 9.42189 15.874 10.6887 14.9311C11.9555 13.9881 13.4037 13.2404 15.0332 12.6878C16.6624 12.1352 18.437 11.859 20.3565 11.859C20.6467 11.859 20.8981 11.9651 21.1102 12.1771C21.3221 12.3894 21.4283 12.6405 21.4283 12.9306C21.4282 13.2207 21.3225 13.4719 21.1102 13.6839Z" fill="#27AE60"/>
</svg>

<svg width="30" height="30" fill="none" xmlns="http://www.w3.org/2000/svg"><path d="M29.866 8.009c-.09-.647-.223-1.34-.402-2.076-.178-.737-.443-1.362-.795-1.875-.351-.514-.745-.77-1.18-.77-.05-.218-.293-.193-.729.075-.435.268-.639.357-.61.268.027-.09-.124.022-.453.335l-.493.468-.494.494c-.435.413-1.069.728-1.9.946-.832.218-1.744.351-2.737.402-.994.05-1.99.084-2.989.1-.999.017-2 .067-3.005.15-1.004.085-1.814.227-2.427.428a15.652 15.652 0 00-3.416 1.599 14.612 14.612 0 00-2.854 2.327 9.99 9.99 0 00-1.992 3.089 9.531 9.531 0 00-.728 3.683 10 10 0 00.15 1.74c.023.112.112.358.268.737.157.38.235.592.235.637 0 .212-.173.48-.52.803-.345.324-.725.637-1.138.938A6.02 6.02 0 00.52 23.603c-.346.43-.519.84-.519 1.23a.995.995 0 00.075.386c.017.033.048.089.092.167a7.372 7.372 0 00.552.887c.112.145.285.279.52.402.234.123.519.184.854.184.324 0 .658-.179 1.004-.535.346-.357.64-.748.88-1.172.239-.424.49-.815.752-1.172.263-.357.483-.536.662-.536.256 0 .792.207 1.607.62.814.413 1.306.647 1.473.703a14.75 14.75 0 004.788.787c2.5 0 4.944-.603 7.333-1.808 2.444-1.217 4.439-2.712 5.985-4.487 1.546-1.775 2.575-3.912 3.089-6.412A16.16 16.16 0 0030 9.616c0-.424-.045-.96-.134-1.607zm-8.756 5.675a1.03 1.03 0 01-.753.318c-2.032 0-3.781.29-5.249.87-1.467.58-2.966 1.563-4.495 2.947-.223.212-.596.58-1.121 1.105-.525.524-.938.92-1.239 1.188-.234.213-.485.319-.753.319a1.03 1.03 0 01-.754-.319 1.029 1.029 0 01-.318-.753c0-.268.106-.519.318-.753 1.362-1.507 2.676-2.732 3.943-3.675 1.267-.943 2.715-1.69 4.344-2.243 1.63-.553 3.404-.829 5.324-.829.29 0 .541.106.753.318.212.212.318.463.318.754 0 .29-.105.54-.318.753z" fill="#27AE60"/></svg>
